!!!!SEGMENT: Ver2020-Salve_Barbara.krn
!!!id: Ver2020
!!!AGN: Motet
!!!voices: 4
!!!COM: Philippe Verdelot
!!!OTL: Salve Barbara
**kern	**kern	**kern	**kern
*part4	*part3	*part2	*part1
*staff4	*staff3	*staff2	*staff1
*I"Bassus	*I"Tenor	*I"Altus	*I"Superius
*I'B	*I'T	*I'A	*I'S
*clefF4	*clefGv2	*clefG2	*clefG2
*k[b-]	*k[b-]	*k[b-]	*k[b-]
*F:	*F:	*F:	*F:
*M2/1	*M2/1	*M2/1	*M2/1
*met(C|)	*met(C|)	*met(C|)	*met(C|)
!!section: Prima pars: Salve Barbara
!!!OMD: Prima pars: Salve Barbara
0r	0r	0c	0r
=1	=1	=1	=1
0r	0r	1d	0r
.	.	[1f	.
=2	=2	=2	=2
0r	0r	2f]	0f
.	.	2e	.
.	.	1d	.
=3	=3	=3	=3
0r	0r	1c	1g
.	.	2d	[1b-y
.	.	4B-y	.
.	.	4c	.
=4	=4	=4	=4
0r	0r	4d	2b-]
.	.	4e	.
.	.	1f	2a
.	.	.	1g
.	.	2e	.
=5	=5	=5	=5
0r	1r	1f	2f
.	.	.	1a
.	[1c	1r	.
.	.	.	2g
=6	=6	=6	=6
0r	1c]	1e	2a
.	.	.	2.cc
.	1d	1f	.
.	.	.	8bnXiL
.	.	.	8aJ
.	.	.	2bni
=7	=7	=7	=7
0F	1.f	1.a	0cc
.	2e	2a	.
=8	=8	=8	=8
1G	2.d	1g	1r
.	4c	.	.
[1B-y	2d	2r	[1f
.	4B-y	2d	.
.	4c	.	.
=9	=9	=9	=9
2B-]	4d	2B-y	1f]
.	4e	.	.
2A	2.f	2c	.
1G	.	2d	1g
.	4e	.	.
.	4e	[2B-y	.
.	8dL	.	.
.	8eJ	.	.
=10	=10	=10	=10
1r	1f	4B-]	1.b-y
.	.	4A	.
.	.	4B-y	.
.	.	4c	.
1D	1F	1d	.
.	.	.	2a
=11	=11	=11	=11
2E	1G	1c	0g
2C	.	.	.
1G	[1B-y	1d	.
=12	=12	=12	=12
1r	2B-]	1.f	2r
.	2A	.	2cc
1C	1G	.	1cc
.	.	2e	.
=13	=13	=13	=13
1D	1.F	1d	1b-y
[1F	.	1c	1a
.	[2A	.	.
=14	=14	=14	=14
2F]	4A]	1c	1r
.	4G	.	.
2E	2.c	.	.
1D	.	1d	1f
.	4BnXi	.	.
.	4Bni	.	.
.	4A	.	.
=15	=15	=15	=15
0r	2c	1e	1g
.	2c	.	.
.	1d	2r	[1b-y
.	.	[2d	.
=16	=16	=16	=16
1F	1f	2d]	2b-]
.	.	2c	2a
1G	2e	1B-y	1g
.	[2d	.	.
=17	=17	=17	=17
1.B-y	4d]	1.d	1f
.	4c	.	.
.	4B-y	.	.
.	4c	.	.
.	4d	.	1f
.	4e	.	.
2A	[2f	2c	.
=18	=18	=18	=18
1G	2f]	1B-y	1g
.	2e	.	.
1F	2.f	1c	2a
.	.	.	4f
.	4e	.	4g
=19	=19	=19	=19
1F	2d	2.f	4a
.	.	.	4b-y
.	2c	.	2.cc
.	.	4e	.
1G	1g	1d	.
.	.	.	4bnXi
.	.	.	4bni
.	.	.	8aL
.	.	.	8bniJ
=20	=20	=20	=20
[0A	1e	[0c	0cc
.	2r	.	.
.	2e	.	.
=21	=21	=21	=21
0A]	1f	0c]	1r
.	1a	.	1cc
=22	=22	=22	=22
0r	2g	0r	1dd
.	1f	.	.
.	.	.	1ff
.	2d	.	.
=23	=23	=23	=23
1r	1g	0r	2ee
.	.	.	1dd
1A	1e	.	.
.	.	.	2cc
=24	=24	=24	=24
1B-y	1d	1r	2dd
.	.	.	2b-y
1d	2r	1f	1a
.	2f	.	.
=25	=25	=25	=25
2c	2e	1g	0r
1B-y	2d	.	.
.	2.g	1b-y	.
2G	.	.	.
.	4f	.	.
=26	=26	=26	=26
1c	2.e	2a	1r
.	.	1g	.
.	4d	.	.
1A	1c	.	2r
.	.	2f	2cc
=27	=27	=27	=27
1G	2r	2g	2b-y
.	2g	2e	2g
2r	2f	1d	1b-y
2G	2d	.	.
=28	=28	=28	=28
2F	0f	2r	2a
2D	.	2d	4f
.	.	.	4g
1F	.	2c	4a
.	.	.	4b-y
.	.	2A	[2cc
=29	=29	=29	=29
4C	1e	1c	4cc]
4D	.	.	4b-y
4E	.	.	2.g
4F	.	.	.
2.G	2d	2B-y	.
.	.	.	4a
.	[2g	[2d	[2b-y
4A	.	.	.
=30	=30	=30	=30
2B-y	4g]	2d]	2b-]
.	4f	.	.
2c	4e	1c	4a
.	4d	.	4g
2A	4c	.	1a
.	4B-y	.	.
2F	2c	[2f	.
=31	=31	=31	=31
2.B-y	1d	2f]	0b-y
.	.	4e	.
4A	.	4d	.
1G	1B-y	2e	.
.	.	2e	.
=32	=32	=32	=32
1F	2c	2f	1a
.	1f	1a	.
1C	.	.	2r
.	2e	2g	[2cc
=33	=33	=33	=33
0r	1d	1f	2cc]
.	.	.	2b-y
.	2.c	1e	2a
.	.	.	[2g
.	4B-y	.	.
=34	=34	=34	=34
2r	2A	0r	4g]
.	.	.	4f
1c	2F	.	1f
.	1G	.	.
2B-y	.	.	2e
=35	=35	=35	=35
2A	2F	2r	1f
2.F	1f	1a	.
.	.	.	2r
4E	.	.	.
2C	2e	2g	[2cc
=36	=36	=36	=36
2D	1d	1f	2cc]
2BB-y	.	.	2b-y
1C	2.c	2e	2a
.	.	2e	[2g
.	4B-y	.	.
=37	=37	=37	=37
2D	2A	1d	4g]
.	.	.	4f
2BB-y	2B-y	.	1f
1C	1G	1c	.
.	.	.	2e
=38	=38	=38	=38
2.c	1F	1r	1f
4B-y	.	.	.
2.A	2.F	[1c	1r
4G	4G	.	.
=39	=39	=39	=39
2F	4A	1c]	0f
.	4B-y	.	.
2E	2.c	.	.
1D	.	1d	.
.	4BnXi	.	.
.	4Bni	.	.
.	4A	.	.
=40	=40	=40	=40
1C	1c	1e	1g
[1F	1r	1c	[1a
=41	=41	=41	=41
1F]	0r	1f	1a]
1G	.	2d	1g
.	.	[2e	.
=42	=42	=42	=42
1A	0c	4e]	0r
.	.	4d	.
.	.	4c	.
.	.	4B-y	.
1F	.	1A	.
=43	=43	=43	=43
1B-y	1d	1G	0r
2G	1e	1r	.
[2A	.	.	.
=44	=44	=44	=44
4A]	1c	0r	0r
4G	.	.	.
4F	.	.	.
4E	.	.	.
2.D	1f	.	.
4E	.	.	.
=45	=45	=45	=45
2F	2d	0r	1r
2G	2.e	.	.
2C	.	.	[1cc
.	4d	.	.
[2F	4c	.	.
.	4B-y	.	.
=46	=46	=46	=46
2F]	4A	0f	1cc]
.	4G	.	.
2E	2.c	.	.
1D	.	.	1dd
.	4BnXi	.	.
.	4Bni	.	.
.	8AL	.	.
.	8BniJ	.	.
=47	=47	=47	=47
1C	1c	1g	1ee
1r	1F	1a	1cc
=48	=48	=48	=48
0r	0r	2f	1ff
.	.	1b-y	.
.	.	.	2dd
.	.	2g	[2ee
=49	=49	=49	=49
1r	0r	2.a	4ee]
.	.	.	4dd
.	.	.	4cc
.	.	4g	4b-y
2r	.	2f	4a
.	.	.	4g
[2F	.	2e	[2cc
=50	=50	=50	=50
2F]	1r	1d	4cc]
.	.	.	8b-yL
.	.	.	8aJ
2G	.	.	2b-y
1A	2r	1c	2.cc
.	[2c	.	.
.	.	.	4b-y
=51	=51	=51	=51
1F	2c]	0r	1a
.	2d	.	.
[1c	1e	.	1g
=52	=52	=52	=52
2c]	1c	2r	0r
2A	.	1f	.
1B-y	1d	.	.
.	.	2g	.
=53	=53	=53	=53
2A	2.c	1a	2r
2.F	.	.	1cc
.	4B-y	.	.
.	2A	2f	.
4E	.	.	.
2D	2F	2f	2dd
=54	=54	=54	=54
1C	[0c	1g	1ee
[1F	.	[1a	1cc
=55	=55	=55	=55
1F]	1c]	1a]	1.ff
1F	1r	1f	.
.	.	.	2ee
=56	=56	=56	=56
1G	2.g	2r	1dd
.	.	1b-y	.
.	4f	.	.
1A	4e	.	1cc
.	4d	.	.
.	2c	2a	.
=57	=57	=57	=57
1B-y	2d	2g	0r
.	1f	2f	.
1G	.	1g	.
.	2e	.	.
=58	=58	=58	=58
1F	1f	1a	1.cc
1r	[1f	1r	.
.	.	.	2cc
=59	=59	=59	=59
1.F	2f]	1.a	1.cc
.	2f	.	.
.	2.f	.	.
2F	.	2a	4b-y
.	4e	.	4a
=60	=60	=60	=60
1G	1d	1g	1b-y
1A	1c	1e	1a
=61	=61	=61	=61
1B-y	1d	2d	1f
.	.	2.f	.
1G	1B-y	.	1g
.	.	4e	.
.	.	4e	.
.	.	8dL	.
.	.	8eJ	.
=62	=62	=62	=62
[0F	4c	1f	0a
.	4d	.	.
.	2.c	.	.
.	.	1r	.
.	4B-y	.	.
.	4A	.	.
.	4G	.	.
=63	=63	=63	=63
0F]	1A	0c	1r
.	1r	.	[1f
=64	=64	=64	=64
0r	0B-y	0d	1f]
.	.	.	1g
=65	=65	=65	=65
0r	1c	1e	0a
.	[1d	[1f	.
=66	=66	=66	=66
0r	1d]	1f]	1b-y
.	1e	1g	[1cc
=67	=67	=67	=67
0r	0f	0a	1cc]
.	.	.	1dd
=68	=68	=68	=68
1r	1g	1b-y	1ee
[1F	2.a	2.cc	2.ff
.	4g	4b-y	4ee
=69	=69	=69	=69
1F]	2f	1a	4dd
.	.	.	4cc
.	2e	.	1cc
1G	1d	1g	.
.	.	.	2bnXi
=70	=70	=70	=70
0A	0c	2r	0cc
.	.	1e	.
.	.	[2f	.
=71	=71	=71	=71
1B-y	1d	2f]	0r
.	.	1g	.
1c	1e	.	.
.	.	[2a	.
=72	=72	=72	=72
2A	2c	4a]	0r
.	.	4g	.
2.B-y	2.d	4f	.
.	.	4e	.
.	.	2f	.
4A	4c	.	.
4G	4B-y	[2g	.
4F	4A	.	.
=73	=73	=73	=73
2G	2B-y	4g]	0r
.	.	4f	.
2.A	2.c	4e	.
.	.	4d	.
.	.	2e	.
4G	4B-y	.	.
4F	4A	[2f	.
4E	4G	.	.
=74	=74	=74	=74
1D	4F	4f]	1r
.	4G	4e	.
.	4A	4f	.
.	4B-y	4d	.
2C	4c	2e	2r
.	4d	.	.
[2c	4e	2c	[2cc
.	4f	.	.
=75	=75	=75	=75
4c]	2g	2e	2cc]
4B-y	.	.	.
2A	1f	2f	2cc
1G	.	1g	1b-y
.	2e	.	.
=76	=76	=76	=76
0F	1f	2r	2a
.	.	1a	2f
.	1r	.	1cc
.	.	2a	.
=77	=77	=77	=77
0r	1r	1g	1b-y
.	2r	2f	1a
.	[2f	2d	.
=78	=78	=78	=78
0r	2f]	1a	2r
.	2f	.	1cc
.	1e	1g	.
.	.	.	2cc
=79	=79	=79	=79
1r	2d	1f	1b-y
.	2B-y	.	.
2r	1f	1r	2a
[2A	.	.	2f
=80	=80	=80	=80
2A]	2.e	1A	1cc
2A	.	.	.
.	8dL	.	.
.	8cJ	.	.
1G	2d	1B-y	1b-y
.	2e	.	.
=81	=81	=81	=81
2F	2.f	2c	0a
2D	.	2d	.
.	8eL	.	.
.	8dJ	.	.
1A	2c	2e	.
.	[2f	2f	.
=82	=82	=82	=82
1G	2f]	1g	1r
.	2e	.	.
1F	[1f	[1a	1cc
=83	=83	=83	=83
2r	1f]	1a]	0ff
2D	.	.	.
1D	1d	1a	.
=84	=84	=84	=84
1A	1c	1a	1ee
[1B-y	2.d	2f	[1dd
.	.	[2b-y	.
.	4e	.	.
=85	=85	=85	=85
2B-]	1f	2b-]	2dd]
2F	.	2a	2cc
1G	[1d	1g	1b-y
=86	=86	=86	=86
1D	2d]	2f	2.a
.	2f	2d	.
.	.	.	8gL
.	.	.	8fJ
2C	2e	2e	4g
.	.	.	4a
2BB-y	[2d	[2f	[2b-y
=87	=87	=87	=87
1F	4d]	4f]	4b-]
.	4c	4e	4a
.	4B-y	2f	1a
.	4A	.	.
1G	1B-y	1d	.
.	.	.	2g
=88	=88	=88	=88
0D	0A	1d	0a
.	.	1r	.
=89	=89	=89	=89
*M3/1	*M3/1	*M3/1	*M3/1
*met(3)	*met(3)	*met(3)	*met(3)
0D	1r	1r	0a
.	0d	0f	.
1D	.	.	1b-y
=90	=90	=90	=90
1C	1e	1g	0cc
0F	0f	0a	.
.	.	.	1a
=91	=91	=91	=91
1.B-y	1d	1f	1.dd
.	1.g	0d	.
2A	.	.	2cc
1G	.	.	1b-y
.	2f	.	.
=92	=92	=92	=92
1A	1.e	1c	1.a
0B-y	.	0d	.
.	2d	.	4g
.	.	.	4f
.	[1d	.	1g
=93	=93	=93	=93
0A	2d]	0e	0a
.	4c#i	.	.
.	4BnXi	.	.
.	1c#i	.	.
1r	1d	[1f	1r
=94	=94	=94	=94
0D	1r	1f]	0a
.	0d	0f	.
1D	.	.	1b-y
=95	=95	=95	=95
1C	1e	1g	0cc
0F	0f	0a	.
.	.	.	1a
=96	=96	=96	=96
1.B-y	1d	1f	1.dd
.	1.g	0d	.
2A	.	.	2cc
1G	.	.	1b-y
.	2f	.	.
=97	=97	=97	=97
1A	1.e	1c	1.a
0B-y	.	1.d	.
.	2d	.	4g
.	.	.	4f
.	[1d	.	1g
.	.	2e	.
=98	=98	=98	=98
*M2/1	*M3/3%2	*M3/3%2	*M2/1
*met(C|)	*Xtuplet	*Xtuplet	*met(C|)
0A	3d]	3%2.f	0a
.	6c#i	.	.
.	6BnXi	.	.
.	3c#i	.	.
.	3%2d	6e	.
.	.	6d	.
.	.	3%2e	.
.	3c#i	.	.
=99	=99	=99	=99
*	*M2/1	*M2/1	*
*	*met(C|)	*met(C|)	*
[0D	2.d	0f	1r
.	4c	.	.
.	4d	.	[1a
.	4e	.	.
.	[2f	.	.
=100	=100	=100	=100
1D]	2f]	1r	1a]
.	4e	.	.
.	4d	.	.
2r	1e	[1g	1cc
2C	.	.	.
=101	=101	=101	=101
1G	0d	1g]	1b-y
1G	.	1b-y	1g
=102	=102	=102	=102
1D	1f	1a	2r
.	.	.	2g
2r	1e	1g	1cc
2C	.	.	.
=103	=103	=103	=103
1G	1d	2r	1b-y
.	.	2g	.
1G	2r	1b-y	2g
.	[2d	.	2dd
=104	=104	=104	=104
1D	2d]	1a	1ff
.	2A	.	.
1r	1c	[1g	1ee
=105	=105	=105	=105
1G	1B-y	1g]	1dd
1A	1c	1e	1cc
=106	=106	=106	=106
2.D	1d	1.f	2b-y
.	.	.	2.a
4E	.	.	.
2F	2c	.	.
.	.	.	4g
2G	2B-y	2e	[2g
=107	=107	=107	=107
1D	1A	1d	2g]
.	.	.	2f
2C	2.c	1e	1g
[2c	.	.	.
.	4B-y	.	.
=108	=108	=108	=108
4c]	4A	1.c	2.cc
4B-y	4G	.	.
4A	1F	.	.
4G	.	.	4b-y
2F	.	.	2a
2E	2G	2c	[2g
=109	=109	=109	=109
1F	2A	0c	4g]
.	.	.	4f
.	2F	.	1f
1C	1G	.	.
.	.	.	2e
=110	=110	=110	=110
2r	[0Fl	2.c	[0fl
2.F	.	.	.
.	.	4B-y	.
.	.	2c	.
4E	.	.	.
4D	.	[2d	.
4C	.	.	.
=111	=111	=111	=111
2BB-y	0F_	2d]	0f_
2AA	.	2c	.
1BB-y	.	1B-y	.
=112	=112	=112	=112
00Fl	00F]	00Al	00f]
==	==	==	==
*-	*-	*-	*-
!!!system-decoration: [*]
!!!RDF**kern: i = editorial accidental
!!!RDF**kern: l = terminal long
!!!ENC: Benjamin Ory
!!!END: 2024/4/8
!!!EED: Benjamin Ory
!!!EEV: 2024/04/08
!!!YEC: Copyright 2024 Benjamin Ory, All Rights Reserved
!!!ONB: Translated from MusicXML on 2024/04/08